Badges/Roblox-Styled/Original/link-my-profile.svg

<svg width="109" height="32" viewBox="0 0 109 32" fill="none" xmlns="http://www.w3.org/2000/svg">
<g filter="url(#filter0_i_24_200)">
<rect width="109" height="32" rx="4" fill="#335FFF"/>
<path d="M23.1875 9.0625C23.3926 9.0625 23.5801 9.1123 23.75 9.21191C23.9258 9.31152 24.0635 9.44922 24.1631 9.625C24.2627 9.79492 24.3125 9.98242 24.3125 10.1875V22.5625C24.3125 22.7676 24.2627 22.9551 24.1631 23.125C24.0635 23.3008 23.9258 23.4385 23.75 23.5381C23.5801 23.6377 23.3926 23.6875 23.1875 23.6875H10.8125C10.6074 23.6875 10.417 23.6377 10.2412 23.5381C10.0713 23.4385 9.93652 23.3008 9.83691 23.125C9.7373 22.9551 9.6875 22.7676 9.6875 22.5625V10.1875C9.6875 9.98242 9.7373 9.79492 9.83691 9.625C9.93652 9.44922 10.0713 9.31152 10.2412 9.21191C10.417 9.1123 10.6074 9.0625 10.8125 9.0625H23.1875ZM15.1104 17.5176C14.7705 17.5176 14.4482 17.5938 14.1436 17.7461C13.8447 17.8926 13.5898 18.0977 13.3789 18.3613C13.1738 18.625 13.0332 18.9238 12.957 19.2578L12.2451 22.5625H21.7549L21.0342 19.2578C20.9639 18.9238 20.8232 18.625 20.6123 18.3613C20.4014 18.0977 20.1436 17.8926 19.8389 17.7461C19.54 17.5938 19.2207 17.5176 18.8809 17.5176H15.1104ZM16.2529 11.3828C16.0889 11.3418 15.9277 11.3447 15.7695 11.3916C15.6113 11.4326 15.4736 11.5117 15.3564 11.6289C15.2393 11.7402 15.1572 11.8779 15.1104 12.042L14.3896 14.7402C14.3428 14.9043 14.3398 15.0684 14.3809 15.2324C14.4277 15.3906 14.5098 15.5283 14.627 15.6455C14.7441 15.7627 14.8848 15.8418 15.0488 15.8828L17.7471 16.6035C17.9111 16.6504 18.0723 16.6533 18.2305 16.6123C18.3887 16.5654 18.5264 16.4834 18.6436 16.3662C18.7607 16.249 18.8428 16.1084 18.8896 15.9443L19.6104 13.2461C19.6572 13.082 19.6572 12.9209 19.6104 12.7627C19.5693 12.6045 19.4902 12.4668 19.373 12.3496C19.2559 12.2324 19.1152 12.1504 18.9512 12.1035L16.2529 11.3828Z" fill="white"/>
<path d="M32.244 20H30.814V12.3H33.344L34.84 18.449H35.016L36.534 12.3H39.064V20H37.634V14.038H37.458L36.05 20H33.85L32.42 14.038H32.244V20ZM41.5218 22.2C41.1258 22.2 40.7848 22.112 40.5208 22.024V20.737C40.8728 20.847 41.1258 20.902 41.4668 20.902C41.9398 20.902 42.2148 20.66 42.3908 20.22L42.4788 20H42.2478L40.0148 14.236H41.5878L42.9628 18.064H43.1388L44.4808 14.236H46.0428L43.8318 20.176C43.2598 21.705 42.5448 22.2 41.5218 22.2ZM51.2377 20H49.7417V12.3H52.6127C54.3067 12.3 55.4837 13.026 55.4837 14.753C55.4837 16.48 54.1417 17.217 52.6127 17.217H51.2377V20ZM51.2377 13.752V15.765H52.8107C53.5147 15.765 53.9657 15.435 53.9657 14.753C53.9657 14.071 53.5147 13.752 52.8107 13.752H51.2377ZM57.8401 20H56.4321V14.236H57.8401V15.05L58.0161 15.116C58.3351 14.489 58.8631 14.126 59.5451 14.126C59.7101 14.126 59.8861 14.148 60.0401 14.181V15.6C59.8201 15.523 59.5451 15.468 59.1931 15.468C58.5881 15.468 58.0821 15.842 57.8401 16.348V20ZM63.227 20.11C61.478 20.11 60.378 18.9 60.378 17.118C60.378 15.336 61.478 14.126 63.227 14.126C64.976 14.126 66.076 15.336 66.076 17.118C66.076 18.9 64.976 20.11 63.227 20.11ZM63.238 18.812C64.074 18.812 64.646 18.196 64.646 17.118C64.646 16.04 64.074 15.424 63.238 15.424C62.402 15.424 61.808 16.04 61.808 17.118C61.808 18.196 62.402 18.812 63.238 18.812ZM72.9298 14.236V20H71.5218V15.446H69.0798V20H67.6718V15.446H66.5608V14.236H67.6718V14.049C67.6718 12.817 68.2658 11.86 70.0038 11.86C70.2348 11.86 70.4988 11.882 70.7298 11.926V13.235C70.4878 13.191 70.2568 13.158 70.0038 13.158C69.2888 13.158 69.0798 13.51 69.0798 14.071V14.236H72.9298ZM71.4888 13.4V11.926H72.9628V13.4H71.4888ZM75.7903 20H74.3822V12.19H75.7903V20ZM79.8577 20.11C78.0867 20.11 76.9317 18.911 76.9317 17.129C76.9317 15.347 78.0867 14.126 79.7367 14.126C81.5187 14.126 82.4097 15.347 82.4097 17.052V17.547H78.3507C78.4717 18.449 79.0437 18.834 79.8577 18.834C80.4517 18.834 80.9027 18.647 81.3537 18.273L82.2007 19.285C81.5847 19.857 80.7047 20.11 79.8577 20.11ZM79.7367 15.314C79.0327 15.314 78.5707 15.677 78.3947 16.403H81.0127C80.9247 15.71 80.4627 15.314 79.7367 15.314Z" fill="white"/>
<path d="M92.625 11.1875C92.7812 11.1875 92.9141 11.2422 93.0234 11.3516C93.1328 11.4609 93.1875 11.5938 93.1875 11.75C93.1875 11.9062 93.1328 12.0391 93.0234 12.1484C92.9141 12.2578 92.7812 12.3125 92.625 12.3125H89.0625V20.1875H96.9375V16.625C96.9375 16.4688 96.9922 16.3359 97.1016 16.2266C97.2109 16.1172 97.3438 16.0625 97.5 16.0625C97.6562 16.0625 97.7891 16.1172 97.8984 16.2266C98.0078 16.3359 98.0625 16.4688 98.0625 16.625V20.375C98.0625 20.543 98.0195 20.6992 97.9336 20.8438C97.8516 20.9883 97.7383 21.1016 97.5938 21.1836C97.4492 21.2695 97.293 21.3125 97.125 21.3125H88.875C88.707 21.3125 88.5508 21.2695 88.4062 21.1836C88.2617 21.1016 88.1465 20.9883 88.0605 20.8438C87.9785 20.6992 87.9375 20.543 87.9375 20.375V12.125C87.9375 11.957 87.9785 11.8008 88.0605 11.6562C88.1465 11.5117 88.2617 11.3984 88.4062 11.3164C88.5508 11.2305 88.707 11.1875 88.875 11.1875H92.625ZM97.5 11.1875C97.6562 11.1875 97.7891 11.2422 97.8984 11.3516C98.0078 11.4609 98.0625 11.5938 98.0625 11.75V14C98.0625 14.1562 98.0078 14.2891 97.8984 14.3984C97.7891 14.5078 97.6562 14.5625 97.5 14.5625C97.3438 14.5625 97.2109 14.5078 97.1016 14.3984C96.9922 14.2891 96.9375 14.1562 96.9375 14V13.1094L93.3984 16.6484C93.2891 16.7578 93.1562 16.8125 93 16.8125C92.8438 16.8125 92.7109 16.7578 92.6016 16.6484C92.4922 16.5391 92.4375 16.4062 92.4375 16.25C92.4375 16.0938 92.4922 15.9609 92.6016 15.8516L96.1406 12.3125H95.25C95.0938 12.3125 94.9609 12.2578 94.8516 12.1484C94.7422 12.0391 94.6875 11.9062 94.6875 11.75C94.6875 11.5938 94.7422 11.4609 94.8516 11.3516C94.9609 11.2422 95.0938 11.1875 95.25 11.1875H97.5Z" fill="white"/>
</g>
<defs>
<filter id="filter0_i_24_200" x="0" y="-2" width="109" height="34" filterUnits="userSpaceOnUse" color-interpolation-filters="sRGB">
<feFlood flood-opacity="0" result="BackgroundImageFix"/>
<feBlend mode="normal" in="SourceGraphic" in2="BackgroundImageFix" result="shape"/>
<feColorMatrix in="SourceAlpha" type="matrix" values="0 0 0 0 0 0 0 0 0 0 0 0 0 0 0 0 0 0 127 0" result="hardAlpha"/>
<feOffset dy="-2"/>
<feGaussianBlur stdDeviation="1.65"/>
<feComposite in2="hardAlpha" operator="arithmetic" k2="-1" k3="1"/>
<feColorMatrix type="matrix" values="0 0 0 0 1 0 0 0 0 1 0 0 0 0 1 0 0 0 0.11 0"/>
<feBlend mode="normal" in2="shape" result="effect1_innerShadow_24_200"/>
</filter>
</defs>
</svg>

<svg xmlns="http://www.w3.org/2000/svg" width="109" height="32" fill="none">
  <g filter="url(#a)">
    <rect width="109" height="32" fill="#335fff" rx="4"/>
    <path fill="#fff" d="M23.188 9.063q.307 0 .562.149.264.15.413.413.15.254.15.563v12.375q0 .307-.15.562-.15.264-.413.413-.255.15-.562.15H10.813a1.1 1.1 0 0 1-.976-.562q-.15-.255-.15-.564V10.188q0-.307.15-.562a1.1 1.1 0 0 1 .976-.562zm-8.078 8.455q-.51 0-.966.228a2.2 2.2 0 0 0-.765.615 2.3 2.3 0 0 0-.422.897l-.712 3.305h9.51l-.72-3.305a2.1 2.1 0 0 0-.423-.897 2.2 2.2 0 0 0-.773-.615 2.1 2.1 0 0 0-.958-.228zm1.143-6.135a.9.9 0 0 0-.483.009.9.9 0 0 0-.414.237.9.9 0 0 0-.246.413l-.72 2.698a.94.94 0 0 0-.01.492.96.96 0 0 0 .247.414.9.9 0 0 0 .422.237l2.698.72q.246.07.483.01a.96.96 0 0 0 .66-.669l.72-2.698a.85.85 0 0 0 0-.483.9.9 0 0 0-.237-.413.96.96 0 0 0-.422-.246zM32.244 20h-1.43v-7.7h2.53l1.496 6.149h.176l1.518-6.149h2.53V20h-1.43v-5.962h-.176L36.05 20h-2.2l-1.43-5.962h-.176zm9.278 2.2c-.396 0-.737-.088-1.001-.176v-1.287c.352.11.605.165.946.165.473 0 .748-.242.924-.682l.088-.22h-.231l-2.233-5.764h1.573l1.375 3.828h.176l1.342-3.828h1.562l-2.211 5.94c-.572 1.529-1.287 2.024-2.31 2.024m9.716-2.2h-1.496v-7.7h2.87c1.695 0 2.872.726 2.872 2.453s-1.342 2.464-2.871 2.464h-1.375zm0-6.248v2.013h1.573c.704 0 1.155-.33 1.155-1.012s-.451-1.001-1.155-1.001zM57.84 20h-1.408v-5.764h1.408v.814l.176.066c.32-.627.847-.99 1.53-.99.164 0 .34.022.494.055V15.6a2.5 2.5 0 0 0-.847-.132c-.605 0-1.11.374-1.353.88zm5.387.11c-1.749 0-2.849-1.21-2.849-2.992s1.1-2.992 2.849-2.992 2.849 1.21 2.849 2.992-1.1 2.992-2.849 2.992m.011-1.298c.836 0 1.408-.616 1.408-1.694s-.572-1.694-1.408-1.694-1.43.616-1.43 1.694.594 1.694 1.43 1.694m9.692-4.576V20h-1.408v-4.554H69.08V20h-1.408v-4.554H66.56v-1.21h1.11v-.187c0-1.232.595-2.189 2.333-2.189.23 0 .495.022.726.066v1.309a4 4 0 0 0-.726-.077c-.715 0-.924.352-.924.913v.165zm-1.441-.836v-1.474h1.474V13.4zM75.79 20h-1.408v-7.81h1.408zm4.068.11c-1.771 0-2.926-1.199-2.926-2.981s1.155-3.003 2.805-3.003c1.782 0 2.673 1.221 2.673 2.926v.495h-4.06c.122.902.694 1.287 1.508 1.287.594 0 1.045-.187 1.496-.561l.847 1.012c-.616.572-1.496.825-2.343.825m-.121-4.796c-.704 0-1.166.363-1.342 1.089h2.618c-.088-.693-.55-1.089-1.276-1.089m12.888-4.126q.235 0 .398.164.165.164.165.398t-.165.398a.54.54 0 0 1-.398.165h-3.562v7.874h7.874v-3.562q0-.235.165-.398a.54.54 0 0 1 .398-.165q.235 0 .398.165.165.164.165.398v3.75a.9.9 0 0 1-.13.469.9.9 0 0 1-.34.34.9.9 0 0 1-.468.128h-8.25a.9.9 0 0 1-.469-.128.93.93 0 0 1-.346-.34.93.93 0 0 1-.123-.469v-8.25q0-.252.124-.469a.93.93 0 0 1 .345-.34.9.9 0 0 1 .469-.129zm4.875 0q.235 0 .398.164.165.164.165.398V14q0 .235-.165.398a.54.54 0 0 1-.398.165.54.54 0 0 1-.398-.165.54.54 0 0 1-.165-.398v-.89l-3.539 3.538a.54.54 0 0 1-.398.165.54.54 0 0 1-.398-.165.54.54 0 0 1-.165-.398q0-.235.165-.398l3.539-3.54h-.891a.54.54 0 0 1-.398-.164.54.54 0 0 1-.165-.398q0-.235.165-.398a.54.54 0 0 1 .398-.165z"/>
  </g>
  <defs>
    <filter id="a" width="109" height="34" x="0" y="-2" color-interpolation-filters="sRGB" filterUnits="userSpaceOnUse">
      <feFlood flood-opacity="0" result="BackgroundImageFix"/>
      <feBlend in="SourceGraphic" in2="BackgroundImageFix" result="shape"/>
      <feColorMatrix in="SourceAlpha" result="hardAlpha" values="0 0 0 0 0 0 0 0 0 0 0 0 0 0 0 0 0 0 127 0"/>
      <feOffset dy="-2"/>
      <feGaussianBlur stdDeviation="1.65"/>
      <feComposite in2="hardAlpha" k2="-1" k3="1" operator="arithmetic"/>
      <feColorMatrix values="0 0 0 0 1 0 0 0 0 1 0 0 0 0 1 0 0 0 0.11 0"/>
      <feBlend in2="shape" result="effect1_innerShadow_24_200"/>
    </filter>
  </defs>
</svg>
